!!!SOCIAL_FUNCTION:	uncategorized
!!!PDT:	1932
!!!OTL: Flute Melody No 3
!!!REG: Wisconsin
!!!LANG: Non-Tone
!!!LING_GROUP: Algonquin
**kern
*staff1
=1-
*clefG2
*k[f#c#g#]
*M2/4
4r
4a/
=2
2a/
=3||
*M3/4
4.a/
8r
8.aa\L
16ee\Jk
=4||
*M2/4
2aa\
=5
[2ee\
=6
4ee\]
4aa\
=7
4.ee\
16ff#\LL
16ee\JJ
=8
4dd\
4ee\
=9||
*M3/4
4.dd\
8dd\
8.b\L
16dd\Jk
=10||
*M2/4
[2a/
=11
(4a/]
8aa\)
8r
=12
4a/
4ee\
=13
4dd\
4b\
=14
2a/
=15||
*M3/4
2a/
4r
=16||
*M2/4
2a/
=17
4a/
4a/
=18||
*M3/4
(2a/
8aa\)
8r
==
*-
